local/share/icons/dracula-icons-main/symbolic/places/user-home-symbolic.svg

<?xml version="1.0" encoding="UTF-8"?>
<svg xmlns="http://www.w3.org/2000/svg" xmlns:xlink="http://www.w3.org/1999/xlink" width="16" height="16" viewBox="0 0 16 16">
<path fill-rule="nonzero" fill="rgb(33.333333%, 33.333333%, 33.333333%)" fill-opacity="1" d="M 8.5 1.414062 C 8.246094 1.414062 7.988281 1.511719 7.792969 1.707031 L 2.136719 7.363281 C 1.746094 7.753906 1.746094 8.386719 2.136719 8.777344 C 2.375 9.015625 2.695312 9.089844 3 9.042969 L 3 14 L 5 14 L 5 7.328125 L 8.5 3.828125 L 12 7.328125 L 12 14 L 14 14 L 14 9.042969 C 14.304688 9.089844 14.625 9.015625 14.863281 8.777344 C 15.253906 8.386719 15.253906 7.753906 14.863281 7.363281 L 9.207031 1.707031 C 9.011719 1.511719 8.753906 1.414062 8.5 1.414062 Z M 8.5 9 C 7.667969 9 7 9.667969 7 10.5 L 7 14 L 10 14 L 10 10.5 C 10 9.667969 9.332031 9 8.5 9 Z M 8.5 9 "/>
</svg>

<svg width="16" height="16" version="1.1" viewBox="0 0 16 16" xmlns="http://www.w3.org/2000/svg">
 <defs>
  <style id="current-color-scheme" type="text/css">.ColorScheme-Text { color:#555555; } .ColorScheme-Highlight { color:#5294e2; }</style>
 </defs>
 <path style="fill:currentColor" class="ColorScheme-Text" d="m8.5 1.4141c-0.25562 0-0.51116 0.0971-0.70703 0.29297l-5.6562 5.6562c-0.39174 0.39174-0.39174 1.0223 0 1.4141 0.23669 0.23669 0.55752 0.313 0.86328 0.26367v4.959h2v-6.6719l3.5-3.5 3.5 3.5v6.6719h2v-4.959c0.30576 0.04933 0.62659-0.026981 0.86328-0.26367 0.39174-0.39174 0.39174-1.0223 0-1.4141l-5.6562-5.6562c-0.19587-0.19587-0.45141-0.29297-0.70703-0.29297zm0 7.5859c-0.831 0-1.5 0.669-1.5 1.5v2 1.5h3v-3-0.5c0-0.831-0.669-1.5-1.5-1.5z"/>
</svg>
